X: 21
T:Untitled Strathspey 1
M:4/4
L:1/8
S:Northern Fiddler 192(a)
S:Danny O'Donnell
Z:posted by Ted Hastings 3/98
K:Bb
E>D DC B,CDG|F<D Dd cA G2|F<D DC B,CDF|dcBG F>D C2:||!
DFBF GFBF|DFBF G<F D2|DFBF GFBF|dcBG F<D C2|!
DFBF GFBF|DFBd fd e2|d<b fd ecdB|({d}c)ABG F<D C2||
